Hatter-kde/actions/16/view-media-equalizer.svg

<svg xmlns="http://www.w3.org/2000/svg" viewBox="0 0 16 16">
  <defs id="defs3051">
    <style type="text/css" id="current-color-scheme">
      .ColorScheme-Text {
        color:#363636;
      }
      </style>
  </defs>
 <path style="fill:currentColor;fill-opacity:1;stroke:none" 
       d="M 3 2 L 3 3.0917969 C 2.4180804 3.2978015 2 3.8457631 2 4.5 C 2 5.1542369 2.4180804 5.7021985 3 5.9082031 L 3 14 L 4 14 L 4 5.9082031 C 4.5825646 5.7025435 5 5.1546973 5 4.5 C 5 3.8453027 4.5825646 3.2974565 4 3.0917969 L 4 2 L 3 2 z M 7.5 2 L 7.5 10.091797 C 6.9180754 10.297803 6.5 10.84576 6.5 11.5 C 6.5 12.15424 6.9180754 12.702197 7.5 12.908203 L 7.5 14 L 8.5 14 L 8.5 12.908203 C 9.0819246 12.702197 9.5 12.15424 9.5 11.5 C 9.5 10.84576 9.0819246 10.297803 8.5 10.091797 L 8.5 2 L 7.5 2 z M 12 2 L 12 6.0917969 C 11.418075 6.2978026 11 6.8457598 11 7.5 C 11 8.1542402 11.418075 8.7021974 12 8.9082031 L 12 14 L 13 14 L 13 8.9082031 C 13.581925 8.7021974 14 8.1542402 14 7.5 C 14 6.8457598 13.581925 6.2978026 13 6.0917969 L 13 2 L 12 2 z "
     class="ColorScheme-Text"
     />
</svg>

<?xml version="1.0" encoding="UTF-8"?>
<svg viewBox="0 0 16 16" xmlns="http://www.w3.org/2000/svg">
 <defs id="defs3051">
  <style id="current-color-scheme" type="text/css">.ColorScheme-Text {
        color:#363636;
      }</style>
 </defs>
 <path class="ColorScheme-Text" d="m3 2v1.0918c-0.58192 0.206-1 0.75397-1 1.4082s0.41808 1.2022 1 1.4082v8.0918h1v-8.0918c0.58256-0.20566 1-0.75351 1-1.4082s-0.41744-1.2025-1-1.4082v-1.0918h-1zm4.5 0v8.0918c-0.58192 0.20601-1 0.75396-1 1.4082s0.41808 1.2022 1 1.4082v1.0918h1v-1.0918c0.58192-0.20601 1-0.75396 1-1.4082s-0.41808-1.2022-1-1.4082v-8.0918h-1zm4.5 0v4.0918c-0.58192 0.20601-1 0.75396-1 1.4082s0.41808 1.2022 1 1.4082v5.0918h1v-5.0918c0.58192-0.20601 1-0.75396 1-1.4082s-0.41808-1.2022-1-1.4082v-4.0918h-1z" fill="currentColor"/>
</svg>
